Newaita/actions/22/format-list-ordered.svg

<?xml version="1.0" encoding="UTF-8"?>
<svg xmlns="http://www.w3.org/2000/svg" xmlns:xlink="http://www.w3.org/1999/xlink" width="22pt" height="22pt" viewBox="0 0 22 22" version="1.1">
<g id="surface1">
<path style=" stroke:none;fill-rule:nonzero;fill:rgb(25.882354%,25.882354%,25.882354%);fill-opacity:1;" d="M 7.675781 2.902344 L 19.613281 2.902344 C 19.832031 2.902344 20.011719 3.105469 20.011719 3.355469 L 20.011719 3.808594 C 20.011719 4.0625 19.832031 4.265625 19.613281 4.265625 L 7.675781 4.265625 C 7.453125 4.265625 7.277344 4.0625 7.277344 3.808594 L 7.277344 3.355469 C 7.277344 3.105469 7.453125 2.902344 7.675781 2.902344 Z M 7.675781 2.902344 "/>
<path style=" stroke:none;fill-rule:nonzero;fill:rgb(25.882354%,25.882354%,25.882354%);fill-opacity:1;" d="M 7.675781 7.902344 L 19.613281 7.902344 C 19.832031 7.902344 20.011719 8.105469 20.011719 8.359375 L 20.011719 8.8125 C 20.011719 9.0625 19.832031 9.269531 19.613281 9.269531 L 7.675781 9.269531 C 7.453125 9.269531 7.277344 9.0625 7.277344 8.8125 L 7.277344 8.359375 C 7.277344 8.105469 7.453125 7.902344 7.675781 7.902344 Z M 7.675781 7.902344 "/>
<path style=" stroke:none;fill-rule:nonzero;fill:rgb(25.882354%,25.882354%,25.882354%);fill-opacity:1;" d="M 7.675781 17.910156 L 19.613281 17.910156 C 19.832031 17.910156 20.011719 18.113281 20.011719 18.363281 L 20.011719 18.820312 C 20.011719 19.070312 19.832031 19.273438 19.613281 19.273438 L 7.675781 19.273438 C 7.453125 19.273438 7.277344 19.070312 7.277344 18.820312 L 7.277344 18.363281 C 7.277344 18.113281 7.453125 17.910156 7.675781 17.910156 Z M 7.675781 17.910156 "/>
<path style=" stroke:none;fill-rule:nonzero;fill:rgb(25.882354%,25.882354%,25.882354%);fill-opacity:1;" d="M 7.675781 12.90625 L 19.613281 12.90625 C 19.832031 12.90625 20.011719 13.109375 20.011719 13.359375 L 20.011719 13.816406 C 20.011719 14.066406 19.832031 14.269531 19.613281 14.269531 L 7.675781 14.269531 C 7.453125 14.269531 7.277344 14.066406 7.277344 13.816406 L 7.277344 13.359375 C 7.277344 13.109375 7.453125 12.90625 7.675781 12.90625 Z M 7.675781 12.90625 "/>
<path style=" stroke:none;fill-rule:nonzero;fill:rgb(14.901961%,65.098041%,60.392159%);fill-opacity:1;" d="M 3.636719 1.082031 C 3.890625 1.082031 4.09375 1.285156 4.09375 1.535156 L 4.09375 4.265625 C 4.09375 4.515625 3.890625 4.71875 3.636719 4.71875 C 3.386719 4.71875 3.183594 4.515625 3.183594 4.265625 L 3.183594 1.535156 C 3.183594 1.285156 3.386719 1.082031 3.636719 1.082031 Z M 3.636719 1.082031 "/>
<path style=" stroke:none;fill-rule:nonzero;fill:rgb(14.901961%,65.098041%,60.392159%);fill-opacity:1;" d="M 2.730469 6.539062 C 2.980469 6.539062 3.183594 6.742188 3.183594 6.992188 L 3.183594 9.722656 C 3.183594 9.972656 2.980469 10.175781 2.730469 10.175781 C 2.476562 10.175781 2.273438 9.972656 2.273438 9.722656 L 2.273438 6.992188 C 2.273438 6.742188 2.476562 6.539062 2.730469 6.539062 Z M 2.730469 6.539062 "/>
<path style=" stroke:none;fill-rule:nonzero;fill:rgb(14.901961%,65.098041%,60.392159%);fill-opacity:1;" d="M 4.546875 6.539062 C 4.800781 6.539062 5.003906 6.742188 5.003906 6.992188 L 5.003906 9.722656 C 5.003906 9.972656 4.800781 10.175781 4.546875 10.175781 C 4.296875 10.175781 4.09375 9.972656 4.09375 9.722656 L 4.09375 6.992188 C 4.09375 6.742188 4.296875 6.539062 4.546875 6.539062 Z M 4.546875 6.539062 "/>
<path style=" stroke:none;fill-rule:nonzero;fill:rgb(14.901961%,65.098041%,60.392159%);fill-opacity:1;" d="M 2.273438 11.996094 C 2.523438 11.996094 2.730469 12.199219 2.730469 12.453125 L 2.730469 15.179688 C 2.730469 15.429688 2.523438 15.636719 2.273438 15.636719 C 2.023438 15.636719 1.820312 15.429688 1.820312 15.179688 L 1.820312 12.453125 C 1.820312 12.199219 2.023438 11.996094 2.273438 11.996094 Z M 2.273438 11.996094 "/>
<path style=" stroke:none;fill-rule:nonzero;fill:rgb(14.901961%,65.098041%,60.392159%);fill-opacity:1;" d="M 4.09375 11.996094 C 4.34375 11.996094 4.546875 12.199219 4.546875 12.453125 L 4.546875 15.179688 C 4.546875 15.429688 4.34375 15.636719 4.09375 15.636719 C 3.84375 15.636719 3.636719 15.429688 3.636719 15.179688 L 3.636719 12.453125 C 3.636719 12.199219 3.84375 11.996094 4.09375 11.996094 Z M 4.09375 11.996094 "/>
<path style=" stroke:none;fill-rule:nonzero;fill:rgb(14.901961%,65.098041%,60.392159%);fill-opacity:1;" d="M 5.914062 11.996094 C 6.164062 11.996094 6.367188 12.199219 6.367188 12.453125 L 6.367188 15.179688 C 6.367188 15.429688 6.164062 15.636719 5.914062 15.636719 C 5.660156 15.636719 5.457031 15.429688 5.457031 15.179688 L 5.457031 12.453125 C 5.457031 12.199219 5.660156 11.996094 5.914062 11.996094 Z M 5.914062 11.996094 "/>
<path style=" stroke:none;fill-rule:nonzero;fill:rgb(14.901961%,65.098041%,60.392159%);fill-opacity:1;" d="M 2.273438 17.453125 C 2.523438 17.453125 2.730469 17.65625 2.730469 17.910156 L 2.730469 20.636719 C 2.730469 20.890625 2.523438 21.09375 2.273438 21.09375 C 2.023438 21.09375 1.820312 20.890625 1.820312 20.636719 L 1.820312 17.910156 C 1.820312 17.65625 2.023438 17.453125 2.273438 17.453125 Z M 2.273438 17.453125 "/>
<path style=" stroke:none;fill-rule:nonzero;fill:rgb(14.901961%,65.098041%,60.392159%);fill-opacity:1;" d="M 3.738281 17.5 C 3.699219 17.5 3.660156 17.503906 3.621094 17.515625 C 3.378906 17.582031 3.234375 17.828125 3.300781 18.074219 L 4.007812 20.707031 C 4.070312 20.945312 4.308594 21.089844 4.546875 21.035156 C 4.785156 21.089844 5.027344 20.945312 5.089844 20.707031 L 5.792969 18.074219 C 5.859375 17.828125 5.714844 17.582031 5.472656 17.515625 C 5.230469 17.449219 4.980469 17.59375 4.917969 17.835938 L 4.546875 19.214844 L 4.179688 17.835938 C 4.125 17.632812 3.941406 17.5 3.738281 17.5 Z M 3.738281 17.5 "/>
</g>
</svg>

<svg xmlns="http://www.w3.org/2000/svg" width="22pt" height="22pt" viewBox="0 0 22 22"><path d="M7.676 2.902h11.937c.219 0 .399.203.399.453v.454c0 .253-.18.457-.399.457H7.676c-.223 0-.399-.204-.399-.457v-.454c0-.25.176-.453.399-.453zm0 0M7.676 7.902h11.937c.219 0 .399.203.399.457v.454c0 .25-.18.457-.399.457H7.676c-.223 0-.399-.207-.399-.457v-.454c0-.254.176-.457.399-.457zm0 0M7.676 17.91h11.937c.219 0 .399.203.399.453v.457c0 .25-.18.453-.399.453H7.676c-.223 0-.399-.203-.399-.453v-.457c0-.25.176-.453.399-.453zm0 0M7.676 12.906h11.937c.219 0 .399.203.399.453v.457c0 .25-.18.454-.399.454H7.676c-.223 0-.399-.204-.399-.454v-.457c0-.25.176-.453.399-.453zm0 0" fill="#424242"/><path d="M3.637 1.082c.254 0 .457.203.457.453v2.73a.454.454 0 0 1-.91 0v-2.73c0-.25.203-.453.453-.453zm0 0M2.73 6.54c.25 0 .454.202.454.452v2.73c0 .25-.204.454-.454.454a.454.454 0 0 1-.457-.453v-2.73c0-.25.204-.454.457-.454zm0 0M4.547 6.54c.254 0 .457.202.457.452v2.73a.454.454 0 0 1-.91 0v-2.73c0-.25.203-.453.453-.453zm0 0M2.273 11.996c.25 0 .457.203.457.457v2.727a.46.46 0 0 1-.457.457.457.457 0 0 1-.453-.457v-2.727c0-.254.203-.457.453-.457zm0 0M4.094 11.996c.25 0 .453.203.453.457v2.727c0 .25-.203.457-.453.457a.46.46 0 0 1-.457-.457v-2.727c0-.254.207-.457.457-.457zm0 0M5.914 11.996c.25 0 .453.203.453.457v2.727c0 .25-.203.457-.453.457a.458.458 0 0 1-.457-.457v-2.727c0-.254.203-.457.457-.457zm0 0M2.273 17.453c.25 0 .457.203.457.457v2.727a.454.454 0 1 1-.91 0V17.91c0-.254.203-.457.453-.457zm0 0M3.738 17.5a.454.454 0 0 0-.438.574l.708 2.633c.062.238.3.383.539.328.238.055.48-.09.543-.328l.703-2.633a.454.454 0 1 0-.875-.238l-.371 1.379-.367-1.38a.455.455 0 0 0-.442-.335zm0 0" fill="#26a69a"/></svg>
